svgs/light/face-holding-back-tears.svg

<svg xmlns="http://www.w3.org/2000/svg" viewBox="0 0 512 512"><!--! Font Awesome Pro 6.4.0 by @fontawesome - https://fontawesome.com License - https://fontawesome.com/license (Commercial License) Copyright 2023 Fonticons, Inc. --><path d="M480 256A224 224 0 1 0 32 256a224 224 0 1 0 448 0zM0 256a256 256 0 1 1 512 0A256 256 0 1 1 0 256zM320.6 116.4c-2.4-8.5 2.5-17.4 11-19.8s17.4 2.5 19.8 11l1.5 5.2c7 24.7 28.1 42.7 53.6 45.9l11.5 1.4c8.8 1.1 15 9.1 13.9 17.9c-1 8.1-7.9 14-15.9 14c10 13.4 16 30 16 48s-6 34.6-16 48v32c0 8.8-7.2 16-16 16s-16-7.2-16-16v-6.7c-9.8 4.3-20.6 6.7-32 6.7c-44.2 0-80-35.8-80-80c0-41.5 31.5-75.6 72-79.6c-10-10.8-17.6-24.1-21.9-38.8l-1.5-5.2zM180.4 96.6c8.5 2.4 13.4 11.3 11 19.8l-1.5 5.2c-4.2 14.8-11.8 28-21.9 38.8c40.4 4 72 38.1 72 79.6v32 16 16c0 8.8-7.2 16-16 16s-16-7.2-16-16c-13.4 10-30 16-48 16c-11.4 0-22.2-2.4-32-6.7V320c0 8.8-7.2 16-16 16s-16-7.2-16-16V288c-10-13.4-16-30-16-48s6-34.6 16-48c-8 0-14.9-5.9-15.9-14c-1.1-8.8 5.1-16.8 13.9-17.9l11.5-1.4c25.5-3.2 46.6-21.3 53.6-45.9l1.5-5.2c2.4-8.5 11.3-13.4 19.8-11zM208 240a48 48 0 1 0 -96 0 48 48 0 1 0 96 0zm144 48a48 48 0 1 0 0-96 48 48 0 1 0 0 96zM160 208c17.7 0 32 14.3 32 32s-14.3 32-32 32s-32-14.3-32-32c17.7 0 32-14.3 32-32zm160 32c17.7 0 32-14.3 32-32c17.7 0 32 14.3 32 32s-14.3 32-32 32s-32-14.3-32-32zm1.9 129.5c5.8-6.7 15.9-7.4 22.6-1.6s7.4 15.9 1.6 22.6C328.9 410.3 298.8 432 256 432s-72.9-21.7-90.1-41.5c-5.8-6.7-5.1-16.8 1.6-22.6s16.8-5.1 22.6 1.6C203 384.4 224.9 400 256 400s53-15.6 65.9-30.5z"/></svg>

<svg xmlns="http://www.w3.org/2000/svg" viewBox="0 0 512 512"><!--! Font Awesome Pro 6.3.0 by @fontawesome - https://fontawesome.com License - https://fontawesome.com/license (Commercial License) Copyright 2023 Fonticons, Inc. --><path d="M320 240C337.7 240 352 225.7 352 208C369.7 208 384 222.3 384 240C384 257.7 369.7 272 352 272C334.3 272 320 257.7 320 240zM320.6 116.4C318.2 107.9 323.1 99.04 331.6 96.62C340.1 94.19 348.1 99.11 351.4 107.6L352.9 112.8C359.9 137.4 381 155.5 406.5 158.7L417.1 160.1C426.8 161.2 432.1 169.2 431.9 177.1C430.9 186.1 423.1 192 416 192C426 205.4 432 221.1 432 240C432 258 426 274.6 416 288V320C416 328.8 408.8 336 400 336C391.2 336 384 328.8 384 320V313.3C374.2 317.6 363.4 320 352 320C307.8 320 272 284.2 272 240C272 198.5 303.5 164.4 343.1 160.4C333.9 149.6 326.3 136.3 322.1 121.6L320.6 116.4zM352 288C378.5 288 400 266.5 400 240C400 213.5 378.5 192 352 192C325.5 192 304 213.5 304 240C304 266.5 325.5 288 352 288zM192 240C192 257.7 177.7 272 160 272C142.3 272 128 257.7 128 240C145.7 240 160 225.7 160 208C177.7 208 192 222.3 192 240zM180.4 96.62C188.9 99.04 193.8 107.9 191.4 116.4L189.9 121.6C185.7 136.3 178.1 149.6 168 160.4C208.5 164.4 240 198.5 240 240V304C240 312.8 232.8 320 224 320C215.2 320 208 312.8 208 304C194.6 314 178 320 160 320C148.6 320 137.8 317.6 128 313.3V320C128 328.8 120.8 336 112 336C103.2 336 96 328.8 96 320V288C85.95 274.6 80 258 80 240C80 221.1 85.95 205.4 95.99 192C88.04 192 81.14 186.1 80.12 177.1C79.03 169.2 85.25 161.2 94.02 160.1L105.5 158.7C130.1 155.5 152.1 137.4 159.1 112.8L160.6 107.6C163 99.11 171.9 94.19 180.4 96.62V96.62zM160 192C133.5 192 112 213.5 112 240C112 266.5 133.5 288 160 288C186.5 288 208 266.5 208 240C208 213.5 186.5 192 160 192zM321.9 369.5C327.7 362.8 337.8 362.1 344.5 367.9C351.2 373.7 351.9 383.8 346.1 390.5C328.9 410.3 298.8 432 256 432C213.2 432 183.1 410.3 165.9 390.5C160.1 383.8 160.8 373.7 167.5 367.9C174.2 362.1 184.3 362.8 190.1 369.5C203 384.4 224.9 400 256 400C287.1 400 308.1 384.4 321.9 369.5V369.5zM512 256C512 397.4 397.4 512 256 512C114.6 512 0 397.4 0 256C0 114.6 114.6 0 256 0C397.4 0 512 114.6 512 256zM256 32C132.3 32 32 132.3 32 256C32 379.7 132.3 480 256 480C379.7 480 480 379.7 480 256C480 132.3 379.7 32 256 32z"/></svg>
